X: 301
T: Laoxi diao
%%abc-version 2.0
%%abcx-abcm2ps-target-version 5.9.1 (29 Sep 2008)
%%abc-creator hum2abc beta
%%abcx-conversion-date 2013/10/02 07:52:29
%%abc-edited-by Helmut Schaffrath
%%humdrum-veritas 3728694324
%%humdrum-veritas-data 4012522726
%%continueall 1
%%barnumbers 0
L: 1/8
M: 3/8
K: F
F D c G [I:setbarnb 1]| 
G F/ D/ F D | 
c4 | 
A c A G/ F/ | 
F G/ F/ D C | 
z d c A/ G/ | 
A c G D | 
F G/ F/C2 | 
c c d3/ c/ | 
c2c A | 
G c G A | 
G4 | 
G2c2 | 
A G A c | 
D> CF2 | 
F Gc2 | 
c c A | 
c G c | 
c A A | 
[M:2/4]G< D F3/ G/ | 
A c G D | 
F G/ F/C2 |]  



